.tmp/img/icon-hand.svg

<?xml version="1.0" encoding="UTF-8"?>
<svg width="69px" height="92px" viewBox="0 0 69 92" version="1.1" xmlns="http://www.w3.org/2000/svg" xmlns:xlink="http://www.w3.org/1999/xlink">
    <!-- Generator: Sketch 42 (36781) - http://www.bohemiancoding.com/sketch -->
    <title>lines-and-angles_hold</title>
    <desc>Created with Sketch.</desc>
    <defs></defs>
    <g id="Welcome" stroke="none" stroke-width="1" fill="none" fill-rule="evenodd">
        <g id="Desktop-HD" transform="translate(-777.000000, -4601.000000)" fill-rule="nonzero" fill="#272729">
            <g id="lines-and-angles_hold" transform="translate(777.000000, 4601.000000)">
                <g id="DESIGNS">
                    <path d="M62.1,22.6265389 L62.1,12.532598 L48.3,9.11092315 L48.3,0.556735961 L27.6,5.68924828 L27.6,15.5060335 C18.8439,16.9089202 15.2007,23.5503911 14.1519,28.8916256 L0,28.8916256 L0,69.9517241 L14.37615,69.9517241 C15.525,73.3939291 18.49545,76.7950739 24.15,76.7950739 L27.6,76.7950739 L27.6,86.3107517 L48.3,91.443264 L48.3,86.3107517 L62.1,82.8890768 L62.1,76.2202325 C65.5707,75.0808148 69,72.1381744 69,66.5334709 L69,32.3133005 C69,26.7051754 65.5707,23.7659567 62.1,22.6265389 Z M55.2,17.8772542 L55.2,22.0482759 L48.3,22.0482759 L48.3,16.1664167 L55.2,17.8772542 Z M34.5,11.0339044 L41.4,9.323067 L41.4,22.0482759 L34.5,22.0482759 L34.5,11.0339044 Z M34.5,76.7950739 L41.4,76.7950739 L41.4,82.676933 L34.5,80.9660956 L34.5,76.7950739 Z M55.2,77.5444207 L48.3,79.2552581 L48.3,76.7950739 L55.2,76.7950739 L55.2,77.5444207 Z M58.6224,69.9517241 L24.15,69.9517241 C21.3693,69.9517241 20.7414,68.069803 20.7,66.5300493 L20.7,63.1083744 L6.9,63.1083744 L6.9,35.7144453 L20.6586,35.7144453 L20.7,32.3304089 C20.71725,30.845402 21.1623,24.2244611 27.6,22.4725635 L27.6,28.8916256 L58.6086,28.8916256 C60.2025,28.9326857 62.1,29.5588522 62.1,32.3133005 L62.1,35.7349754 L55.2,35.7349754 L55.2,42.5783251 L62.1,42.5783251 L62.1,46 L55.2,46 L55.2,52.8433498 L62.1,52.8433498 L62.1,56.2650246 L55.2,56.2650246 L55.2,63.1083744 L62.1,63.1083744 L62.1,66.5300493 C62.1,69.2776542 60.21285,69.9072424 58.6224,69.9517241 Z" id="Shape"></path>
                </g>
            </g>
        </g>
    </g>
</svg>

<svg width="69" height="92" viewBox="0 0 69 92" xmlns="http://www.w3.org/2000/svg"><path d="M62.1 22.627V12.533L48.3 9.11V.557L27.6 5.689v9.817c-8.756 1.403-12.4 8.044-13.448 13.386H0v41.06h14.376c1.149 3.442 4.12 6.843 9.774 6.843h3.45v9.516l20.7 5.132v-5.132l13.8-3.422V76.22c3.47-1.14 6.9-4.082 6.9-9.687v-34.22c0-5.608-3.43-8.547-6.9-9.686zm-6.9-4.75v4.171h-6.9v-5.882l6.9 1.711zm-20.7-6.843l6.9-1.71v12.724h-6.9V11.034zm0 65.761h6.9v5.882l-6.9-1.71v-4.172zm20.7.75l-6.9 1.71v-2.46h6.9v.75zm3.422-7.593H24.15c-2.78 0-3.409-1.882-3.45-3.422v-3.422H6.9V35.714h13.759l.041-3.384c.017-1.485.462-8.106 6.9-9.857v6.419h31.009c1.593.04 3.491.667 3.491 3.421v3.422h-6.9v6.843h6.9V46h-6.9v6.843h6.9v3.422h-6.9v6.843h6.9v3.422c0 2.748-1.887 3.377-3.478 3.422z" fill-rule="nonzero" fill="#272729"/></svg>
